icons/vidicon-line.svg

<svg xmlns="http://www.w3.org/2000/svg" width="24" height="24" fill="none"><g clip-path="url(#a)"><g><path fill="#121212" d="M17 9.2L22.213 5.55C22.288 5.49746 22.3759 5.4665 22.4672 5.4605C22.5586 5.4545 22.6498 5.4737 22.731 5.51599C22.8122 5.55829 22.8802 5.62206 22.9276 5.70035C22.9751 5.77865 23.0001 5.86846 23 5.96V18.04C23.0001 18.1315 22.9751 18.2214 22.9276 18.2996C22.8802 18.3779 22.8122 18.4417 22.731 18.484C22.6498 18.5263 22.5586 18.5455 22.4672 18.5395C22.3759 18.5335 22.288 18.5025 22.213 18.45L17 14.8V19C17 19.2652 16.8946 19.5196 16.7071 19.7071C16.5196 19.8946 16.2652 20 16 20H2C1.73478 20 1.48043 19.8946 1.29289 19.7071C1.10536 19.5196 1 19.2652 1 19V5C1 4.73478 1.10536 4.48043 1.29289 4.29289C1.48043 4.10536 1.73478 4 2 4H16C16.2652 4 16.5196 4.10536 16.7071 4.29289C16.8946 4.48043 17 4.73478 17 5V9.2ZM17 12.359L21 15.159V8.84L17 11.64V12.358V12.359ZM3 6V18H15V6H3ZM5 8H7V10H5V8Z"/></g></g><defs><clipPath id="a"><rect width="24" height="24" fill="white"/></clipPath></defs></svg>

<svg width="24" height="24" fill="none" xmlns="http://www.w3.org/2000/svg"><g clip-path="url(#a)"><path d="m17 9.2 5.213-3.65a.5.5 0 0 1 .787.41v12.08a.5.5 0 0 1-.787.41L17 14.8V19a1 1 0 0 1-1 1H2a1 1 0 0 1-1-1V5a1 1 0 0 1 1-1h14a1 1 0 0 1 1 1v4.2Zm0 3.159 4 2.8V8.84l-4 2.8v.719ZM3 6v12h12V6H3Zm2 2h2v2H5V8Z" /></g><defs><clipPath id="a"><path fill="#fff" d="M0 0h24v24H0z"/></clipPath></defs></svg>
